X: 344
T: Fang shao
L: 1/16
M: 2/4
K: C
G2 G2 c2 d e [I:setbarnb 1]| 
c2 B AG4 | 
c2> F2 G2 A G | 
F2 E DC4 | 
G2> D2 E2 A2 | 
G2 D EC4 | 
F2 E2 G2 D E | 
C8 |]

@@@ Tune index: 9218
